svg/emoji_u1f9d1_1f3fc_200d_1f680.svg

<svg viewBox="0 0 128 128" xmlns="http://www.w3.org/2000/svg" xml:space="preserve" style="fill-rule:evenodd;clip-rule:evenodd;stroke-linejoin:round;stroke-miterlimit:2"><clipPath id="a"><path d="M0 0h128v128H0z"/></clipPath><g clip-path="url(#a)"><path d="M0 125.75v14.52h128v-14.52c0-22.28-31.41-33.59-63.51-33.55C32.59 92.24 0 102.15 0 125.75" style="fill:#bdbdbd;fill-rule:nonzero"/></g><clipPath id="b"><path d="M0 0h128v128H0z"/></clipPath><g clip-path="url(#b)"><path d="M56.51 162.08H39.36c-2.19 0-3.99-1.8-3.99-3.99V121.9c0-2.19 1.8-3.99 3.99-3.99h17.16c2.19 0 3.99 1.8 3.99 3.99v36.19c-.011 2.188-1.811 3.985-4 3.99" style="fill:#0d47a1;fill-rule:nonzero"/></g><clipPath id="c"><path d="M0 0h128v128H0z"/></clipPath><g clip-path="url(#c)"><path d="M71.39 129.88h-.45c-3.29 0-5.98-2.69-5.98-5.98s2.69-5.98 5.98-5.98h.45c3.29 0 5.98 2.69 5.98 5.98 0 3.28-2.69 5.98-5.98 5.98" style="fill:#616161;fill-rule:nonzero"/></g><clipPath id="d"><path d="M0 0h128v128H0z"/></clipPath><g clip-path="url(#d)"><path d="M86.65 129.88h-.45c-3.29 0-5.98-2.69-5.98-5.98s2.69-5.98 5.98-5.98h.45c3.29 0 5.98 2.69 5.98 5.98 0 3.28-2.69 5.98-5.98 5.98" style="fill:#f5f5f5;fill-rule:nonzero"/></g><clipPath id="e"><path d="M0 0h128v128H0z"/></clipPath><g clip-path="url(#e)"><path d="M105.26 140c.07-13.65 5.71-25.59 14.12-32.22-1.75-1.57-3.73-3.02-5.9-4.36-8.64 8.32-14.25 21.6-14.32 36.58zm-82.98 0c-.07-13.65-5.69-25.52-14.1-32.15a38 38 0 0 1 5.87-4.43c8.64 8.32 14.26 21.6 14.33 36.58z" style="fill:#939393;fill-rule:nonzero"/></g><clipPath id="f"><path d="M0 0h128v128H0z"/></clipPath><g clip-path="url(#f)"><path d="M128 125.75c0-2.94-.56-5.69-1.59-8.25l-8.22 2.67 5.16 15.93 4.65-1.51zM0 138.07c3.94-3.27 6.45-8.2 6.45-13.71 0-3.85-1.23-7.4-3.31-10.32C1.12 117.5 0 121.39 0 125.75z" style="fill:#757575;fill-rule:nonzero"/></g><ellipse cx="64.07" cy="49.36" rx="49.18" ry="48.99" style="fill:#212121"/><path d="M51.89 29.71s2.92.51 2.92 3.65c0 2.77-2.13 3.87-4.26 3.87v-7.51h1.34zm-31.82 0s-2.92.51-2.92 3.65c0 2.77 2.13 3.87 4.26 3.87v-7.51h-1.34z" style="fill:#c48e6a;fill-rule:nonzero" transform="translate(-5.8 -3.617)scale(1.93748)"/><path d="M35.98 9.13c-12.57 0-15.86 9.75-15.86 23.44 0 14.2 10.772 17.87 15.86 17.87s15.86-3.57 15.86-17.87c.01-13.69-3.28-23.44-15.86-23.44" style="fill:#e0bb95;fill-rule:nonzero" transform="translate(-5.8 -3.617)scale(1.93748)"/><path d="M30.76 33.84c0 1.41-.95 2.56-2.12 2.56s-2.12-1.15-2.12-2.56c0-1.42.95-2.56 2.12-2.56s2.12 1.15 2.12 2.56m10.44 0c0 1.41.95 2.56 2.12 2.56s2.12-1.15 2.12-2.56c0-1.42-.95-2.56-2.12-2.56s-2.12 1.15-2.12 2.56" style="fill:#444;fill-rule:nonzero" transform="translate(-5.8 -3.617)scale(1.93748)"/><path d="M40.57 42.49h-9.18c-.53 0-.75.35-.4.88.49.74 2.3 2.17 5 2.17s4.51-1.43 5-2.17c.34-.52.11-.88-.42-.88" style="fill:#513f35;fill-rule:nonzero" transform="translate(-5.8 -3.617)scale(1.93748)"/><path d="M38.2 38.59c-.78.22-1.59.33-2.22.33s-1.44-.11-2.22-.33c-.33-.09-.47.22-.35.43.25.44 1.25 1.32 2.56 1.32 1.32 0 2.32-.88 2.56-1.32.14-.21 0-.52-.33-.43" style="fill:#c48e6a;fill-rule:nonzero" transform="translate(-5.8 -3.617)scale(1.93748)"/><path d="M52.262 8.761c2.609-2.071 6.264-3.817 11.411-3.919 0 0 .245-.01.357-.01.102 0 .358.01.358.01 3.72.105 6.771 1.059 9.211 2.384.814.257 1.594.591 2.271.978.411.235.784.496 1.154.791.076.061.357.216.382.309.029.104-.215-.016-.323-.025l-.518-.05a18 18 0 0 1 1.632 1.526q.406.243.804.542c.328.248.597.553.855.87.089.11.181.217.258.336.049.075.231.215.143.225-.164.019-.363-.068-.54-.126.49.691.87 1.345 1.145 1.917a22 22 0 0 1 1.843 5.752c.583.781 1.058 1.631 1.146 2.468.014.129-.201-.164-.306-.239-.195-.14-.401-.262-.602-.393.108 1.251.098 2.383.032 3.351.37.45.918 1.038.984 1.631.005.054-.099-.045-.147-.069a2.6 2.6 0 0 1-.381-.219 6 6 0 0 1-.537-.438c-.182 1.626-.491 2.598-.491 2.598s-.214-.224-.623-.541a4.5 4.5 0 0 0-.918-.531c.641 2.894 1.186 7.523 0 9.525-1.931-1.619-4.557-7.162-5.274-16.657-.656.574-1.323 1.09-1.899 1.334.041.174.083.348.138.511q.093.282.228.545c.049.092.263.284.16.268-.25-.038-.63-.422-.852-.559a6.2 6.2 0 0 0-1.418-.665 14 14 0 0 1-1.466-.161c.182.606.328 1.224.382 1.854.019.224.042.875-.13 1.032l-.177-.239q-.168-.24-.34-.477c-.327-.452-.653-.901-1.03-1.314-.701-.768-1.424-1.493-2.227-2.113-.775-.352-1.552-.702-2.371-.954-1.09-.336-2.211-.382-3.324-.585a7 7 0 0 1-.579-.133l-.335.015c.636 1.536.849 3.238.359 4.828a7.3 7.3 0 0 1-.959 1.986c-.031.045-.332.485-.412.452-.229-.096-.574-.838-.718-1.047-.539-.785-1.112-1.593-1.792-2.266-1.251-1.241-2.76-2.056-4.307-2.808.095 5.761-1.668 13.544-5.32 17.153-.942-2.112-.797-6.926 0-9.525 0 0-.49.194-.919.531-.398.317-.622.541-.622.541s-.692-2.59-.702-5.863c-.184.162-.517.577-.725.61-.061.01.011-.124.018-.186q.027-.224.065-.446.083-.518.227-1.023c.13-.452.315-.875.531-1.282.222-2.067.794-4.222 2.003-6.771" style="fill:#bfa055;fill-rule:nonzero" transform="translate(-57.572 1.413)scale(1.89819)"/><path d="M107.41 86.06c-2.63-2.63-6.7-3.1-9.91-1.21a66.4 66.4 0 0 1-33.83 9.22c-12.35 0-23.91-3.36-33.83-9.22-3.21-1.89-7.28-1.43-9.91 1.21-3.71 3.71-3 9.98 1.52 12.66 12.37 7.34 26.8 11.56 42.22 11.56s29.85-4.22 42.22-11.56c4.52-2.68 5.24-8.95 1.52-12.66" style="fill:#757575;fill-rule:nonzero"/><circle cx="64.07" cy="49.38" r="49.18" style="fill:#212121;fill-opacity:.5"/><path d="M64.07 18.81c21.76 0 40.51 12.81 49.16 31.29 0-.24.02-.48.02-.73C113.25 22.21 91.23.19 64.07.19S14.89 22.21 14.89 49.37c0 .24.01.49.02.73 8.65-18.48 27.4-31.29 49.16-31.29m43.48 64.25c-2.63-2.63-6.7-3.1-9.91-1.21a66.4 66.4 0 0 1-33.83 9.22c-12.35 0-23.91-3.36-33.83-9.22-3.21-1.89-7.28-1.43-9.91 1.21-3.71 3.71-3 9.98 1.52 12.66 12.37 7.34 26.8 11.56 42.22 11.56s29.85-4.22 42.22-11.56c4.52-2.68 5.24-8.95 1.52-12.66" style="fill:#bdbdbd;fill-rule:nonzero"/><path d="m117.66 37.64-6.18 2.49-7.62-18.88 6.18-2.49c1.57-.64 3.37.13 4 1.7l5.32 13.18c.64 1.57-.12 3.37-1.7 4" style="fill:#bdbdbd;fill-rule:nonzero"/><circle cx="110.28" cy="24.04" r="3.03" style="fill:#757575" transform="rotate(-22.297 110.289 24.039)"/><circle cx="114.1" cy="33.71" r="3.03" style="fill:#757575" transform="rotate(-22.297 114.114 33.71)"/><path d="m10.1 37.64 6.18 2.49 7.62-18.88-6.18-2.49c-1.57-.64-3.37.13-4 1.7L8.4 33.64c-.64 1.57.12 3.37 1.7 4" style="fill:#bdbdbd;fill-rule:nonzero"/><circle cx="17.49" cy="24.04" r="3.03" style="fill:#757575" transform="rotate(-67.703 17.485 24.038)"/><circle cx="13.66" cy="33.71" r="3.03" style="fill:#757575" transform="rotate(-67.703 13.66 33.709)"/><path d="m85.7 83.23-4.08.77c-1.91.36-3.76-.91-4.12-2.81l-.27-1.45c-.36-1.91.91-3.76 2.81-4.12l4.08-.77c1.91-.36 3.76.91 4.12 2.81l.27 1.45c.37 1.9-.9 3.76-2.81 4.12" style="fill:#212121;fill-rule:nonzero"/><path d="m94.59 79.14-7.56 1.51c-.67.13-1.34-.31-1.47-.98s.31-1.34.98-1.47l7.56-1.51c.67-.13 1.34.31 1.47.98s-.31 1.34-.98 1.47" style="fill:#212121;fill-rule:nonzero"/></svg>

<?xml version="1.0" encoding="UTF-8" standalone="no"?>
<!DOCTYPE svg PUBLIC "-//W3C//DTD SVG 1.1//EN" "http://www.w3.org/Graphics/SVG/1.1/DTD/svg11.dtd">
<svg width="100%" height="100%" viewBox="0 0 128 128" version="1.1" xmlns="http://www.w3.org/2000/svg" xmlns:xlink="http://www.w3.org/1999/xlink" xml:space="preserve" xmlns:serif="http://www.serif.com/" style="fill-rule:evenodd;clip-rule:evenodd;stroke-linejoin:round;stroke-miterlimit:2;">
    <clipPath id="_clip1">
        <rect x="0" y="0" width="128" height="128"/>
    </clipPath>
    <g clip-path="url(#_clip1)">
        <path d="M0,125.75L0,140.27L128,140.27L128,125.75C128,103.47 96.59,92.16 64.49,92.2C32.59,92.24 0,102.15 0,125.75Z" style="fill:rgb(189,189,189);fill-rule:nonzero;"/>
    </g>
    <clipPath id="_clip2">
        <rect x="0" y="0" width="128" height="128"/>
    </clipPath>
    <g clip-path="url(#_clip2)">
        <path d="M56.51,162.08L39.36,162.08C37.17,162.08 35.37,160.28 35.37,158.09L35.37,121.9C35.37,119.71 37.17,117.91 39.36,117.91L56.52,117.91C58.71,117.91 60.51,119.71 60.51,121.9L60.51,158.09C60.499,160.278 58.699,162.075 56.51,162.08Z" style="fill:rgb(13,71,161);fill-rule:nonzero;"/>
    </g>
    <clipPath id="_clip3">
        <rect x="0" y="0" width="128" height="128"/>
    </clipPath>
    <g clip-path="url(#_clip3)">
        <path d="M71.39,129.88L70.94,129.88C67.65,129.88 64.96,127.19 64.96,123.9C64.96,120.61 67.65,117.92 70.94,117.92L71.39,117.92C74.68,117.92 77.37,120.61 77.37,123.9C77.37,127.18 74.68,129.88 71.39,129.88Z" style="fill:rgb(97,97,97);fill-rule:nonzero;"/>
    </g>
    <clipPath id="_clip4">
        <rect x="0" y="0" width="128" height="128"/>
    </clipPath>
    <g clip-path="url(#_clip4)">
        <path d="M86.65,129.88L86.2,129.88C82.91,129.88 80.22,127.19 80.22,123.9C80.22,120.61 82.91,117.92 86.2,117.92L86.65,117.92C89.94,117.92 92.63,120.61 92.63,123.9C92.63,127.18 89.94,129.88 86.65,129.88Z" style="fill:rgb(245,245,245);fill-rule:nonzero;"/>
    </g>
    <clipPath id="_clip5">
        <rect x="0" y="0" width="128" height="128"/>
    </clipPath>
    <g clip-path="url(#_clip5)">
        <path d="M105.26,140C105.33,126.35 110.97,114.41 119.38,107.78C117.63,106.21 115.65,104.76 113.48,103.42C104.84,111.74 99.23,125.02 99.16,140L105.26,140ZM22.28,140C22.21,126.35 16.59,114.48 8.18,107.85C9.988,106.186 11.954,104.702 14.05,103.42C22.69,111.74 28.31,125.02 28.38,140L22.28,140Z" style="fill:rgb(147,147,147);fill-rule:nonzero;"/>
    </g>
    <clipPath id="_clip6">
        <rect x="0" y="0" width="128" height="128"/>
    </clipPath>
    <g clip-path="url(#_clip6)">
        <path d="M128,125.75C128,122.81 127.44,120.06 126.41,117.5L118.19,120.17L123.35,136.1L128,134.59L128,125.75ZM0,138.07C3.94,134.8 6.45,129.87 6.45,124.36C6.45,120.51 5.22,116.96 3.14,114.04C1.12,117.5 0,121.39 0,125.75L0,138.07Z" style="fill:rgb(117,117,117);fill-rule:nonzero;"/>
    </g>
    <ellipse cx="64.07" cy="49.36" rx="49.18" ry="48.99" style="fill:rgb(33,33,33);"/>
    <g transform="matrix(0.972102,0,0,0.972102,1.85548,1.63413)">
        <g transform="matrix(1.99309,0,0,1.99309,-7.87354,-5.40165)">
            <path d="M51.89,29.71C51.89,29.71 54.81,30.22 54.81,33.36C54.81,36.13 52.68,37.23 50.55,37.23L50.55,29.72L51.89,29.72L51.89,29.71ZM20.07,29.71C20.07,29.71 17.15,30.22 17.15,33.36C17.15,36.13 19.28,37.23 21.41,37.23L21.41,29.72L20.07,29.72L20.07,29.71Z" style="fill:#c48e6a;fill-rule:nonzero;"/>
        </g>
        <g transform="matrix(1.99309,0,0,1.99309,-7.87354,-5.40165)">
            <path d="M35.98,9.13C23.41,9.13 20.12,18.88 20.12,32.57C20.12,46.77 30.892,50.44 35.98,50.44C41.068,50.44 51.84,46.87 51.84,32.57C51.85,18.88 48.56,9.13 35.98,9.13Z" style="fill:#e0bb95;fill-rule:nonzero;"/>
        </g>
        <g transform="matrix(1.99309,0,0,1.99309,-7.87354,-5.40165)">
            <path d="M30.76,33.84C30.76,35.25 29.81,36.4 28.64,36.4C27.47,36.4 26.52,35.25 26.52,33.84C26.52,32.42 27.47,31.28 28.64,31.28C29.81,31.28 30.76,32.43 30.76,33.84M41.2,33.84C41.2,35.25 42.15,36.4 43.32,36.4C44.49,36.4 45.44,35.25 45.44,33.84C45.44,32.42 44.49,31.28 43.32,31.28C42.15,31.28 41.2,32.43 41.2,33.84" style="fill:rgb(68,68,68);fill-rule:nonzero;"/>
        </g>
        <g transform="matrix(1.99309,0,0,1.99309,-7.87354,-5.40165)">
            <path d="M40.57,42.49L31.39,42.49C30.86,42.49 30.64,42.84 30.99,43.37C31.48,44.11 33.29,45.54 35.99,45.54C38.69,45.54 40.5,44.11 40.99,43.37C41.33,42.85 41.1,42.49 40.57,42.49Z" style="fill:rgb(81,63,53);fill-rule:nonzero;"/>
        </g>
        <g transform="matrix(1.99309,0,0,1.99309,-7.87354,-5.40165)">
            <path d="M38.2,38.59C37.42,38.81 36.61,38.92 35.98,38.92C35.35,38.92 34.54,38.81 33.76,38.59C33.43,38.5 33.29,38.81 33.41,39.02C33.66,39.46 34.66,40.34 35.97,40.34C37.29,40.34 38.29,39.46 38.53,39.02C38.67,38.81 38.53,38.5 38.2,38.59Z" style="fill:#c48e6a;fill-rule:nonzero;"/>
        </g>
        <g transform="matrix(1.95267,0,0,1.95267,-61.1325,-0.22713)">
            <path d="M52.262,8.761C54.871,6.69 58.526,4.944 63.673,4.842C63.673,4.842 63.918,4.832 64.03,4.832C64.132,4.832 64.388,4.842 64.388,4.842C68.108,4.947 71.159,5.901 73.599,7.226C74.413,7.483 75.193,7.817 75.87,8.204C76.281,8.439 76.654,8.7 77.024,8.995C77.1,9.056 77.381,9.211 77.406,9.304C77.435,9.408 77.191,9.288 77.083,9.279L76.565,9.229C77.168,9.727 77.711,10.241 78.197,10.755C78.468,10.918 78.736,11.097 79.001,11.297C79.329,11.545 79.598,11.85 79.856,12.167C79.945,12.277 80.037,12.384 80.114,12.503C80.163,12.578 80.345,12.718 80.257,12.728C80.093,12.747 79.894,12.66 79.717,12.602C80.207,13.293 80.587,13.947 80.862,14.519C81.83,16.534 82.396,18.486 82.705,20.271C83.288,21.052 83.763,21.902 83.851,22.739C83.865,22.868 83.65,22.575 83.545,22.5C83.35,22.36 83.144,22.238 82.943,22.107C83.051,23.358 83.041,24.49 82.975,25.458C83.345,25.908 83.893,26.496 83.959,27.089C83.964,27.143 83.86,27.044 83.812,27.02C83.677,26.953 83.554,26.89 83.431,26.801C83.245,26.666 83.063,26.52 82.894,26.363C82.712,27.989 82.403,28.961 82.403,28.961C82.403,28.961 82.189,28.737 81.78,28.42C81.341,28.083 80.862,27.889 80.862,27.889C81.503,30.783 82.048,35.412 80.862,37.414C78.931,35.795 76.305,30.252 75.588,20.757C74.932,21.331 74.265,21.847 73.689,22.091C73.73,22.265 73.772,22.439 73.827,22.602C73.89,22.789 73.964,22.973 74.055,23.147C74.104,23.239 74.318,23.431 74.215,23.415C73.965,23.377 73.585,22.993 73.363,22.856C72.915,22.577 72.444,22.347 71.945,22.191C71.454,22.16 70.963,22.113 70.479,22.03C70.661,22.636 70.807,23.254 70.861,23.884C70.88,24.108 70.903,24.759 70.731,24.916C70.731,24.916 70.567,24.696 70.554,24.677C70.442,24.517 70.328,24.358 70.214,24.2C69.887,23.748 69.561,23.299 69.184,22.886C68.483,22.118 67.76,21.393 66.957,20.773C66.182,20.421 65.405,20.071 64.586,19.819C63.496,19.483 62.375,19.437 61.262,19.234C61.067,19.198 60.875,19.153 60.683,19.101C60.572,19.105 60.46,19.11 60.348,19.116C60.984,20.652 61.197,22.354 60.707,23.944C60.489,24.65 60.168,25.323 59.748,25.93C59.717,25.975 59.416,26.415 59.336,26.382C59.107,26.286 58.762,25.544 58.618,25.335C58.079,24.55 57.506,23.742 56.826,23.069C55.575,21.828 54.066,21.013 52.519,20.261C52.614,26.022 50.851,33.805 47.199,37.414C46.257,35.302 46.402,30.488 47.199,27.889C47.199,27.889 46.709,28.083 46.28,28.42C45.882,28.737 45.658,28.961 45.658,28.961C45.658,28.961 44.966,26.371 44.956,23.098C44.772,23.26 44.439,23.675 44.231,23.708C44.17,23.718 44.242,23.584 44.249,23.522C44.266,23.373 44.29,23.224 44.314,23.076C44.37,22.731 44.444,22.389 44.541,22.053C44.671,21.601 44.856,21.178 45.072,20.771C45.294,18.704 45.866,16.549 47.075,14.#bfa055.829,14.685 46.59,14.66 46.364,14.633C46.074,14.597 45.784,14.536 45.51,14.435C45.473,14.422 45.284,14.379 45.272,14.341C45.272,14.341 45.795,14.088 45.876,14.045C46.537,13.694 47.188,13.297 47.831,12.91C48.166,12.707 48.507,12.48 48.844,12.237C49.435,11.486 50.136,10.681 50.969,9.887C50.741,9.706 50.538,9.484 50.368,9.207C50.176,8.893 49.996,8.531 49.952,8.16C49.937,8.034 50.024,7.712 50.238,7.753C50.805,7.862 51.061,8.682 51.676,8.821C51.832,8.856 52.051,8.816 52.262,8.761Z" style="fill:#bfa055;fill-rule:nonzero;"/>
        </g>
    </g>
    <path d="M107.41,86.06C104.78,83.43 100.71,82.96 97.5,84.85C87.58,90.7 76.02,94.07 63.67,94.07C51.32,94.07 39.76,90.71 29.84,84.85C26.63,82.96 22.56,83.42 19.93,86.06C16.22,89.77 16.93,96.04 21.45,98.72C33.82,106.06 48.25,110.28 63.67,110.28C79.09,110.28 93.52,106.06 105.89,98.72C110.41,96.04 111.13,89.77 107.41,86.06Z" style="fill:rgb(117,117,117);fill-rule:nonzero;"/>
    <circle cx="64.07" cy="49.38" r="49.18" style="fill:rgb(33,33,33);fill-opacity:0.5;"/>
    <path d="M64.07,18.81C85.83,18.81 104.58,31.62 113.23,50.1C113.23,49.86 113.25,49.62 113.25,49.37C113.25,22.21 91.23,0.19 64.07,0.19C36.91,0.19 14.89,22.21 14.89,49.37C14.89,49.61 14.9,49.86 14.91,50.1C23.56,31.62 42.31,18.81 64.07,18.81ZM107.55,83.06C104.92,80.43 100.85,79.96 97.64,81.85C87.72,87.7 76.16,91.07 63.81,91.07C51.46,91.07 39.9,87.71 29.98,81.85C26.77,79.96 22.7,80.42 20.07,83.06C16.36,86.77 17.07,93.04 21.59,95.72C33.96,103.06 48.39,107.28 63.81,107.28C79.23,107.28 93.66,103.06 106.03,95.72C110.55,93.04 111.27,86.77 107.55,83.06Z" style="fill:rgb(189,189,189);fill-rule:nonzero;"/>
    <path d="M117.66,37.64L111.48,40.13L103.86,21.25L110.04,18.76C111.61,18.12 113.41,18.89 114.04,20.46L119.36,33.64C120,35.21 119.24,37.01 117.66,37.64Z" style="fill:rgb(189,189,189);fill-rule:nonzero;"/>
    <g transform="matrix(0.92523,-0.379408,0.379408,0.92523,-0.874228,43.6419)">
        <circle cx="110.28" cy="24.04" r="3.03" style="fill:rgb(117,117,117);"/>
    </g>
    <g transform="matrix(0.92523,-0.379408,0.379408,0.92523,-4.25748,45.8162)">
        <circle cx="114.1" cy="33.71" r="3.03" style="fill:rgb(117,117,117);"/>
    </g>
    <path d="M10.1,37.64L16.28,40.13L23.9,21.25L17.72,18.76C16.15,18.12 14.35,18.89 13.72,20.46L8.4,33.64C7.76,35.21 8.52,37.01 10.1,37.64Z" style="fill:rgb(189,189,189);fill-rule:nonzero;"/>
    <g transform="matrix(0.379408,-0.92523,0.92523,0.379408,-11.3896,31.0954)">
        <circle cx="17.49" cy="24.04" r="3.03" style="fill:rgb(117,117,117);"/>
    </g>
    <g transform="matrix(0.379408,-0.92523,0.92523,0.379408,-22.7113,33.5582)">
        <circle cx="13.66" cy="33.71" r="3.03" style="fill:rgb(117,117,117);"/>
    </g>
    <g>
        <path d="M85.7,83.23L81.62,84C79.71,84.36 77.86,83.09 77.5,81.19L77.23,79.74C76.87,77.83 78.14,75.98 80.04,75.62L84.12,74.85C86.03,74.49 87.88,75.76 88.24,77.66L88.51,79.11C88.88,81.01 87.61,82.87 85.7,83.23Z" style="fill:rgb(33,33,33);fill-rule:nonzero;"/>
        <path d="M94.59,79.14L87.03,80.65C86.36,80.78 85.69,80.34 85.56,79.67C85.43,79 85.87,78.33 86.54,78.2L94.1,76.69C94.77,76.56 95.44,77 95.57,77.67C95.7,78.34 95.26,79.01 94.59,79.14Z" style="fill:rgb(33,33,33);fill-rule:nonzero;"/>
    </g>
</svg>
